Adwaita++/actions/symbolic/object-rotate-right-symbolic.svg

<svg height="16" width="16" xmlns="http://www.w3.org/2000/svg">
  <g fill="#474747">
    <path d="m3 3v2h4.5c.84 0 1.5.66 1.5 1.5v5.5h2v-5.5c0-1.921-1.579-3.5-3.5-3.5z"/>
    <path d="m6 9h1c.257 0 .529.13.719.313l2.281 2.279 2.281-2.28c.19-.182.462-.312.719-.312h1v1c0 .31-.09.552-.281.75l-3.719 3.656-3.719-3.656c-.19-.198-.281-.44-.281-.75z"/>
  </g>
</svg>

<svg xmlns="http://www.w3.org/2000/svg" width="16" height="16">
    <g font-weight="400" fill="#474747">
        <path d="M3 3v2h4.5C8.34 5 9 5.66 9 6.5V12h2V6.5C11 4.579 9.421 3 7.5 3z" style="line-height:normal;font-variant-ligatures:normal;font-variant-position:normal;font-variant-caps:normal;font-variant-numeric:normal;font-variant-alternates:normal;font-feature-settings:normal;text-indent:0;text-align:start;text-decoration-line:none;text-decoration-style:solid;text-decoration-color:#000;text-transform:none;text-orientation:mixed;shape-padding:0;isolation:auto;mix-blend-mode:normal;marker:none" color="#000" font-family="sans-serif" white-space="normal" overflow="visible"/>
        <path d="M6 9h1c.257 0 .529.13.719.313L10 11.592l2.281-2.28C12.471 9.13 12.743 9 13 9h1v1c0 .31-.09.552-.281.75L10 14.406 6.281 10.75C6.091 10.552 6 10.31 6 10z" style="line-height:normal;-inkscape-font-specification:'Bitstream Vera Sans';text-indent:0;text-align:start;text-decoration-line:none;text-transform:none;marker:none" color="#bebebe" font-family="Bitstream Vera Sans" overflow="visible"/>
    </g>
</svg>
